svgs/google_news.svg

<svg width="192" height="192" viewBox="0 0 192 192" fill="none" xmlns="http://www.w3.org/2000/svg">
<path d="M22 38L26.1841 33.6996C24.4555 32.0177 21.8878 31.5344 19.666 32.4726C17.4441 33.4108 16 35.5882 16 38H22ZM170 38H176C176 35.5257 174.481 33.3051 172.175 32.4082C169.869 31.5112 167.249 32.1217 165.577 33.9457L170 38ZM40.5 56L36.3159 60.3004C38.645 62.5665 42.355 62.5665 44.6841 60.3004L40.5 56ZM59 38L63.1841 33.6996C60.855 31.4335 57.145 31.4335 54.8159 33.6996L59 38ZM77.5 56L73.3159 60.3004C75.645 62.5665 79.355 62.5665 81.6841 60.3004L77.5 56ZM96 38L100.184 33.6996C97.855 31.4335 94.145 31.4335 91.8159 33.6996L96 38ZM114.5 56L110.316 60.3004C112.601 62.524 116.227 62.5716 118.57 60.4088L114.5 56ZM134 38L138.07 33.5912C135.771 31.4696 132.229 31.4696 129.93 33.5912L134 38ZM153.5 56L149.43 60.4088C150.602 61.4906 152.157 62.0613 153.75 61.9948C155.344 61.9283 156.845 61.23 157.923 60.0543L153.5 56ZM164 38V146H176V38H164ZM162 148H30V160H162V148ZM28 146V38H16V146H28ZM17.8159 42.3004L36.3159 60.3004L44.6841 51.6996L26.1841 33.6996L17.8159 42.3004ZM44.6841 60.3004L63.1841 42.3004L54.8159 33.6996L36.3159 51.6996L44.6841 60.3004ZM54.8159 42.3004L73.3159 60.3004L81.6841 51.6996L63.1841 33.6996L54.8159 42.3004ZM81.6841 60.3004L100.184 42.3004L91.8159 33.6996L73.3159 51.6996L81.6841 60.3004ZM91.8159 42.3004L110.316 60.3004L118.684 51.6996L100.184 33.6996L91.8159 42.3004ZM118.57 60.4088L138.07 42.4088L129.93 33.5912L110.43 51.5912L118.57 60.4088ZM129.93 42.4088L149.43 60.4088L157.57 51.5912L138.07 33.5912L129.93 42.4088ZM157.923 60.0543L174.423 42.0543L165.577 33.9457L149.077 51.9457L157.923 60.0543ZM30 148C28.8954 148 28 147.105 28 146H16C16 153.732 22.268 160 30 160V148ZM164 146C164 147.105 163.105 148 162 148V160C169.732 160 176 153.732 176 146H164Z" fill="black"/>
<path d="M96 104H122C122 118.359 110.359 130 96 130C81.6406 130 70 118.359 70 104C70 89.6406 81.6406 78 96 78C103.18 78 109.68 80.9101 114.385 85.6152" stroke="black" stroke-width="12" stroke-linecap="round" stroke-linejoin="round"/>
</svg>

<svg width="192" height="192" fill="none" xmlns="http://www.w3.org/2000/svg"><path d="m22 38 4.184-4.3A6 6 0 0 0 16 38h6zm148 0h6a6 6 0 0 0-10.423-4.054L170 38zM40.5 56l-4.184 4.3a6 6 0 0 0 8.368 0L40.5 56zM59 38l4.184-4.3a6 6 0 0 0-8.368 0L59 38zm18.5 18-4.184 4.3a6 6 0 0 0 8.368 0L77.5 56zM96 38l4.184-4.3a6 6 0 0 0-8.368 0L96 38zm18.5 18-4.184 4.3a6 6 0 0 0 8.254.109L114.5 56zM134 38l4.07-4.409a6 6 0 0 0-8.14 0L134 38zm19.5 18-4.07 4.409a6.001 6.001 0 0 0 8.493-.355L153.5 56zM164 38v108h12V38h-12zm-2 110H30v12h132v-12zm-134-2V38H16v108h12zM17.816 42.3l18.5 18 8.368-8.6-18.5-18-8.368 8.6zm26.868 18 18.5-18-8.368-8.6-18.5 18 8.368 8.6zm10.132-18 18.5 18 8.368-8.6-18.5-18-8.368 8.6zm26.868 18 18.5-18-8.368-8.6-18.5 18 8.368 8.6zm10.132-18 18.5 18 8.368-8.6-18.5-18-8.368 8.6zM118.57 60.41l19.5-18-8.14-8.818-19.5 18 8.14 8.818zm11.36-18 19.5 18 8.14-8.818-19.5-18-8.14 8.818zm27.993 17.645 16.5-18-8.846-8.108-16.5 18 8.846 8.108zM30 148a2 2 0 0 1-2-2H16c0 7.732 6.268 14 14 14v-12zm134-2a2 2 0 0 1-2 2v12c7.732 0 14-6.268 14-14h-12z" fill="#000"/><path d="M96 104h26c0 14.359-11.641 26-26 26-14.36 0-26-11.641-26-26 0-14.36 11.64-26 26-26 7.18 0 13.68 2.91 18.385 7.615" stroke="#000" stroke-width="12" stroke-linecap="round" stroke-linejoin="round"/></svg>
